ui_kit/lib/assets/icons/degrade.svg

<svg width="24" height="24" viewBox="0 0 24 24" fill="none" xmlns="http://www.w3.org/2000/svg">
<path fill-rule="evenodd" clip-rule="evenodd" d="M12.0764 3.05209C12.2616 2.98264 12.4657 2.98264 12.651 3.05209L19.1965 5.50666C19.5158 5.62641 19.7274 5.93169 19.7274 6.27275V12.0001C19.7274 14.8199 17.8605 17.0731 16.1752 18.5477C15.3154 19.3 14.4594 19.8881 13.8201 20.2877C13.4995 20.488 13.2312 20.6424 13.0412 20.7476C12.9461 20.8002 12.8705 20.8406 12.8175 20.8684C12.791 20.8823 12.7702 20.8931 12.7554 20.9007L12.7378 20.9096L12.7325 20.9123L12.7308 20.9132C12.7305 20.9133 12.7296 20.9137 12.3637 20.1819L11.9973 20.9135L11.9949 20.9123L11.9896 20.9096L11.972 20.9007C11.9572 20.8931 11.9363 20.8823 11.9099 20.8684C11.8569 20.8406 11.7812 20.8002 11.6862 20.7476C11.4961 20.6424 11.2279 20.488 10.9073 20.2877C10.2679 19.8881 9.41198 19.3 8.55216 18.5477C6.8669 17.0731 5 14.8199 5 12.0001V6.27275C5 5.93169 5.21156 5.62641 5.5309 5.50666L12.0764 3.05209ZM11.9973 20.9135C12.2276 21.0287 12.4992 21.0289 12.7296 20.9137L12.3637 20.1819C11.9978 20.9137 11.9975 20.9136 11.9973 20.9135ZM12.3637 19.2515C12.5205 19.1626 12.721 19.0449 12.9528 18.9C13.5407 18.5326 14.3211 17.9957 15.0977 17.3162C16.6851 15.9271 18.091 14.0894 18.091 12.0001V6.83975L12.3637 4.69201L6.63637 6.83975V12.0001C6.63637 14.0894 8.04223 15.9271 9.62972 17.3162C10.4063 17.9957 11.1867 18.5326 11.7746 18.9C12.0064 19.0449 12.2069 19.1626 12.3637 19.2515ZM12.3637 7.90915C12.8155 7.90915 13.1819 8.27547 13.1819 8.72734V12.0001C13.1819 12.452 12.8155 12.8183 12.3637 12.8183C11.9118 12.8183 11.5455 12.452 11.5455 12.0001V8.72734C11.5455 8.27547 11.9118 7.90915 12.3637 7.90915ZM12.3637 14.4546C11.9118 14.4546 11.5455 14.8209 11.5455 15.2728C11.5455 15.7247 11.9118 16.091 12.3637 16.091H12.3719C12.8237 16.091 13.19 15.7247 13.19 15.2728C13.19 14.8209 12.8237 14.4546 12.3719 14.4546H12.3637Z" fill="white"/>
</svg>

<svg xmlns="http://www.w3.org/2000/svg" width="24" height="24" fill="none" viewBox="0 0 24 24"><path fill="#fff" fill-rule="evenodd" d="M12.076 3.052c.186-.07.39-.07.575 0l6.546 2.455c.319.12.53.425.53.766V12c0 2.82-1.867 5.073-3.552 6.548a18.568 18.568 0 0 1-3.42 2.353l-.017.009-.005.002-.002.001-.367-.731-.367.732-.002-.002-.005-.002-.018-.01a6.77 6.77 0 0 1-.286-.152 18.563 18.563 0 0 1-3.134-2.2C6.867 17.073 5 14.82 5 12V6.273c0-.341.212-.647.53-.766l6.546-2.455Zm-.079 17.861c.23.116.502.116.733 0l-.366-.731-.367.732Zm.367-1.662a16.924 16.924 0 0 0 2.734-1.935C16.685 15.927 18.09 14.09 18.09 12V6.84l-5.727-2.148L6.636 6.84V12c0 2.09 1.406 3.927 2.994 5.316a16.922 16.922 0 0 0 2.734 1.936Zm0-11.342c.451 0 .818.366.818.818V12a.818.818 0 0 1-1.636 0V8.727c0-.452.366-.818.818-.818Zm0 6.546a.818.818 0 1 0 0 1.636h.008a.818.818 0 0 0 0-1.636h-.008Z" clip-rule="evenodd"/></svg>
